X:1
T:Sioux Indians
M:3/4
L:1/4
K:Eb
 z2 G| E F G| E F/2F/2 G| E C C| C2 G| G c2-| c2 d| c/2 B3/2 G| G c B|\
 G3-| G2 G| G c d| c B3/2 G/2| G c B| G3-| G2 G| B3/2 G/2 G|F/2-E/2 C C|\
 E C B,| C3-| C2 z|
